dist/svgs/unicons/line/yen-circle.svg

<svg xmlns="http://www.w3.org/2000/svg" viewBox="0 0 24 24"><path d="M12 1a11 11 0 1011 11A11 11 0 0012 1zm0 20a9 9 0 119-9 9 9 0 01-9 9zm2.83-14.55L12 10.7 9.17 6.45a1 1 0 00-1.39-.28 1 1 0 00-.28 1.38l2.11 3.17H9a1 1 0 000 2h2l.05.08v.92H9a1 1 0 000 2h2V18a1 1 0 002 0v-2.28h2a1 1 0 000-2h-2v-.92l.05-.08H15a1 1 0 000-2h-.61l2.11-3.17a1 1 0 00-.28-1.38 1 1 0 00-1.39.28z"/></svg>

<svg xmlns="http://www.w3.org/2000/svg" viewBox="0 0 24 24"><path d="M12,1A11,11,0,1,0,23,12,11,11,0,0,0,12,1Zm0,20a9,9,0,1,1,9-9A9,9,0,0,1,12,21ZM14.83,6.45,12,10.7,9.17,6.45a1,1,0,0,0-1.39-.28A1,1,0,0,0,7.5,7.55l2.11,3.17H9a1,1,0,0,0,0,2H11l.05.08v.92H9a1,1,0,0,0,0,2h2V18a1,1,0,0,0,2,0V15.72h2a1,1,0,0,0,0-2H13V12.8l.05-.08H15a1,1,0,0,0,0-2h-.61L16.5,7.55a1,1,0,0,0-.28-1.38A1,1,0,0,0,14.83,6.45Z"/></svg>
